!!!COM: Bach, Johann Sebastian
!!!OPR: Joh. Seb. Bachs vierstimmige Choralgesänge
!!!XEN: Four-part Chorales
!!!OTL: 21. Christ, der du bist der helle Tag
!!!SCT: BWV 273
!!!SCA: Thematisch-systematisches Verzeichnis der musikalischen Werke Johann Sebastian Bach: Bach-Werke-Verzeichnis (Schmieder)
!!!YOR: Bach Gesellschaft Edition xxxix
!!!ENC: Steven Rasmussen
!!!CDT: 1685/3//-1750/7/28/
!!!OCY: Deutschland
!!!YEC: Copyright (c) 1994, 2000 Center for Computer Assisted Research in the Humanities
!!!YEM: Rights to all derivative editions reserved
!!!YEN: United States of America
**kern	**kern	**kern	**kern	**silbe
*I:[BASSO]	*I:[TENORE]	*I:[ALTO]	*I:[SOPRANO]	*I:[SOPRANO]
*clefF4	*clefGv2	*clefG2	*clefG2	*
*k[b-e-]	*k[b-e-]	*k[b-e-]	*k[b-e-]	*
*B-:	*B-:	*B-:	*B-:	*
*M4/4	*M4/4	*M4/4	*M4/4	*
4GG	4B-	4d	4g	Christ,
=1	=1	=1	=1	=1
4G	4B-	8dL	4g	der
.	.	8enJ	.	.
8DL	8dL	8fL	4b-	du
8EnJ	8cJ	8gJ	.	.
8FL	4c	8fL	4a	bist
8F#J	.	8e-J	.	.
8GL	8B-L	4d	4g	der
8FnJ	8AJ	.	.	.
=2	=2	=2	=2	=2
8E-L	(16GLL	8gL	4b-	hel-
.	16AJJ	.	.	.
8DJ	4B-)	8fJ	.	.
8CL	.	8e-L	4cc	-le
8FJ	8A	8fJ	.	.
4BB-;	4B-;	4f;	4dd;	Tag,
4BB-	8B-L	4f	4dd	vor
.	8cJ	.	.	.
=3	=3	=3	=3	=3
8B-L	8dL	4f	4dd	dir
8AJ	8cJ	.	.	.
4G	4B-	4g	8ddL	die
.	.	.	8ee-J	.
4F	4c	4a	8ffL	Nacht
.	.	.	8ee-J	.
8GL	8B-L	4b-	4dd	nicht
8FJ	8dJ	.	.	.
=4	=4	=4	=4	=4
4E-	4g	8b-L	4cc	blei-
.	.	16aL	.	.
.	.	16gJJ	.	.
4F	8fL	4a	4cc	-ben
.	8e-J	.	.	.
4BB-;	4d;	4f;	4b-;	mag;
8GL	4d	4g	4b-	du
8FJ	.	.	.	.
=5	=5	=5	=5	=5
8E-L	4e-	8gL	4b-	leuch-
8DJ	.	8aJ	.	.
8CL	4f	4b-	4dd	-test
8BB-J	.	.	.	.
4.F	4f	8b-L	4cc	uns
.	.	16aL	.	.
.	.	16gJJ	.	.
.	4c	4f	4a	vom
8E-	.	.	.	.
=6	=6	=6	=6	=6
8DL	4.B-	4f	4b-	Va-
8BB-J	.	.	.	.
4F	.	4f	4cc	-ter
.	8A	.	.	.
4BB-;	4B-;	4f;	4dd;	her
4BB-	4B-	4f	4dd	und
=7	=7	=7	=7	=7
8BB-L	4B-	4f	4dd	bist
8CJ	.	.	.	.
8DL	4B-	4f	4dd	des
8E-J	.	.	.	.
4F	8B-L	8.fL	4cc	Lich-
.	8AJ	.	.	.
.	.	16e-Jk	.	.
8F#L	4A	4d	4cc	-tes
8DJ	.	.	.	.
=8	=8	=8	=8	=8
4G	8AL	4d	4.b-	Pre-
.	8GJ	.	.	.
4C#	8GL	4en	.	.
.	16AL	.	16aLL	-di-
.	16B-JJ	.	16gJJ	.
4D;	4A;	4d;	4f;	-ger,
8BB-L	8B-L	4d	4f	und
8AAJ	8cJ	.	.	.
=9	=9	=9	=9	=9
4GG	8dL	8gL	8b-L	bist
.	8cJ	8aJ	8ccJ	.
8GL	8B-L	4b-	4dd	des
8FJ	8AJ	.	.	.
4En	4G	4b-	4cc	Lich-
4F#	4d	4a	4dd	-tes
=10	=10	=10	=10	=10
8GL	8dL	(8a	4b-	Pre-
8CJ	8e-J	4g)	.	.
4D	8AL	.	4a	-di-
.	8dJ	8f#	.	.
4GG;	4B-;	4d;	4g;	-ger.
==|!	==|!	==|!	==|!	==|!
*-	*-	*-	*-	*-
!!!RWG: Key is interpreted using the Humdrum key tool.
!!!URL-pdf: https://s9.imslp.org/files/imglnks/usimg/6/6b/IMSLP24489-PMLP09471-CCARH_Bach_Chorales.pdf#page=13 Musedata edition
!!!URL-pdf: https://s9.imslp.org/files/imglnks/usimg/7/7a/IMSLP04155-Bach_-_BGA_253-438.pdf#page=12 	Bach-Gesellschaft Ausgabe, Band 39 (pp.175-276) Leipzig: Breitkopf und Härtel, 1892. Plate B.W. XXXIX.
!!!END: 1994/05/11
!!!EMD: Converted from MuseData to Humdrum Dec 19, 2000, by Andreas Kornstaedt using muse2kern.
!!!EED: Craig Stuart Sapp
!!!EEV: 2024/03/31
!!!ONB: Some non-unicode characters
!!!filter-keyboard: satb2gs
